; HEADER_BLOCK_START
; generated by OrcaSlicer 2.3.0 on 2025-04-04 at 00:13:14
; total layer number: 3
;_GP_TOTAL_LAYER_NUMBER_PLACEHOLDER
; filament_density: 1.24,1.24
; filament_diameter: 1.75,1.75
; max_z_height: 0.60
; HEADER_BLOCK_END

; THUMBNAIL_BLOCK_START

;
; THUMBNAIL_BLOCK_END

; THUMBNAIL_BLOCK_START

;
; THUMBNAIL_BLOCK_END

; THUMBNAIL_BLOCK_START

;
; THUMBNAIL_BLOCK_END

; THUMBNAIL_BLOCK_START

;
; THUMBNAIL_BLOCK_END

; THUMBNAIL_BLOCK_START

;
; THUMBNAIL_BLOCK_END

; external perimeters extrusion width = 0.45mm
; perimeters extrusion width = 0.45mm
; infill extrusion width = 0.45mm
; solid infill extrusion width = 0.45mm
; top infill extrusion width = 0.42mm
; first layer extrusion width = 0.50mm

; external perimeters extrusion width = 0.45mm
; perimeters extrusion width = 0.45mm
; infill extrusion width = 0.45mm
; solid infill extrusion width = 0.45mm
; top infill extrusion width = 0.42mm
; first layer extrusion width = 0.50mm

; EXECUTABLE_BLOCK_START
M486 S0
M486 ABrilliant_Snaget_4_.stl_id_0_copy_0
M486 S-1
M73 P0 R8
M201 X7000 Y7000 Z200 E2500
M203 X400 Y400 Z12 E100
M204 P4000 R1200 T5000 ; sets acceleration (P, T) and retract acceleration (R), mm/sec^2
M205 X8.00 Y8.00 Z2.00 E10.00 ; sets the jerk limits, mm/sec
;TYPE:Custom
M17 ; enable steppers
M862.3 P "XL" ; printer model check
M115 U6.0.1+14848
G90 ; use absolute coordinates
M83 ; extruder relative mode
; set print area
M555 X81.292 Y69 W37.416 H61.9978
; inform about nozzle diameter
M862.1 P0.4
; set & wait for bed and extruder temp for MBL
M140 S60 ; set bed temp
M104 T0 S170 ; set extruder temp for bed leveling
M109 T0 R170 ; wait for temp
; home carriage, pick tool, home all
G28 XY
M84 E ; turn off E motor
G28 Z
M190 S60 ; wait for bed temp
G29 G ; absorb heat
; move to the nozzle cleanup area
G1 X113.292 Y62 Z5 F4800
M302 S160 ; lower cold extrusion limit to 160C
G1 E-2 F2400 ; retraction for nozzle cleanup
M73 P48 R4
; nozzle cleanup
M84 E ; turn off E motor
G29 P9 X81.292 Y62 W32 H7
G0 Z10 F480 ; move away in Z

M106 S100 ; cool off the nozzle
M107 ; stop cooling off the nozzle - turn off the fan
; MBL
M84 E ; turn off E motor
G29 P1 ; invalidate mbl & probe print area
G29 P1 X30 Y0 W50 H20 C ; probe near purge place
G29 P3.2 ; interpolate mbl probes
G29 P3.13 ; extrapolate mbl outside probe area
G29 A ; activate mbl
M104 S210 ; set extruder temp
G1 Z10 F720 ; move away in Z
G0 X30 Y-8 F6000 ; move next to the sheet
; wait for extruder temp
M109 T0 S210
;
; purge
;
G92 E0 ; reset extruder position
G0 X30 Y-8 ; move close to the sheet's edge
M73 P49 R4
G1 E2 F2400 ; deretraction after the initial one before nozzle cleaning
G0 E10 X40 Z0.2 F500 ; purge
G0 X70 E9 F800 ; purge
G0 X73 Z0.05 F8000 ; wipe, move close to the bed
G0 X76 Z0.2 F8000 ; wipe, move quickly away from the bed
G92 E0 ; reset extruder position
G90
G21
M83 ; use relative distances for extrusion
; MANUAL_TOOL_CHANGE T0
M104 S210 ; set nozzle temperature
; filament start gcode
M900 K0.05 ; Filament gcode


M572 S0.036 ; Filament gcode


M142 S36 ; set heatbreak target temp
M106 S0
;LAYER_CHANGE
;Z:0.2
;HEIGHT:0.2
;BEFORE_LAYER_CHANGE
G92 E0.0
;0.2
G1 E-2 F2100
;AFTER_LAYER_CHANGE
;0.2
;_SET_FAN_SPEED_CHANGING_LAYER
M204 P500
; printing object Brilliant Snaget (4).stl id:0 copy 0
M204 T500
M486 S0
G1 X101.289 Y123.988 F24000
G1 Z.6
M73 P50 R4
G1 Z.2
G1 E2 F1800
;TYPE:Inner wall
;WIDTH:0.499999
G1 F1500
G1 X100.825 Y123.744 E.01992
G1 X100.336 Y123.621 E.01918
G1 X100.101 Y123.604 E.00893
G1 X99.349 Y123.684 E.02874
G1 X98.756 Y123.946 E.02463
G1 X98.651 Y123.573 E.01474
G1 X98.493 Y123.4 E.00887
G1 X98.123 Y123.24 E.01533
G1 X97.298 Y122.972 E.03297
G3 X94.739 Y122.253 I2.077 J-12.293 E.10122
G3 X92.583 Y121.213 I6.486 J-16.199 E.09105
G1 X91.809 Y120.711 E.03506
G3 X88.583 Y117.529 I8.453 J-11.797 E.17292
G3 X86.388 Y109.77 I9.666 J-6.923 E.31266
G3 X87.205 Y106.226 I11.429 J.768 E.1388
G1 X87.572 Y105.391 E.03466
G1 X87.602 Y105.068 E.01235
G1 X87.537 Y104.86 E.00829
G1 X87.445 Y104.721 E.00633
G1 X87.241 Y104.559 E.00992
G1 X86.924 Y104.481 E.0124
G1 X85.054 Y104.481 E.07107
G1 X84.643 Y103.983 E.02455
G1 X84.35 Y103.531 E.02044
G1 X84.213 Y103.145 E.01561
G1 X84.257 Y102.789 E.01361
G1 X84.483 Y102.369 E.01815
G2 X85.15 Y101.706 I-3.9 J-4.588 E.03576
G1 X85.213 Y101.436 E.01055
G3 X85.342 Y97.415 I118.385 J1.792 E.15291
G1 X85.432 Y96.41 E.03833
G3 X85.95 Y94.162 I10.623 J1.263 E.08787
G3 X89.064 Y89.14 I13.019 J4.598 E.22633
G3 X92.739 Y86.383 I10.45 J10.1 E.17534
G1 X93.055 Y86.174 E.01438
G1 X93.204 Y85.923 E.01111
G1 X93.236 Y85.649 E.01047
G1 X93.19 Y85.102 E.02087
G1 X93.242 Y84.455 E.02469
G1 X93.404 Y83.833 E.02441
G1 X93.638 Y83.4 E.01871
G1 X93.95 Y82.998 E.01934
G1 X94.325 Y82.625 E.02011
G1 X94.844 Y82.212 E.02521
G1 X95.007 Y81.955 E.01156
G1 X95.048 Y81.702 E.00974
G1 X94.989 Y81.445 E.01004
G1 X94.684 Y80.77 E.02813
G1 X94.382 Y80.26 E.02254
G1 X93.89 Y79.618 E.03075
G2 X93.016 Y78.801 I-5.407 J4.909 E.04551
G1 X92.816 Y78.682 E.00883
G1 X92.573 Y78.637 E.00941
G3 X90.584 Y78.576 I-.367 J-20.328 E.07563
G3 X87.791 Y77.645 I.579 J-6.396 E.11292
G1 X87.311 Y77.306 E.02234
G1 X86.765 Y76.818 E.0278
G1 X86.295 Y76.273 E.02738
G3 X85.718 Y75.305 I4.066 J-3.078 E.04288
G1 X85.472 Y74.786 E.02183
G1 X85.293 Y74.632 E.00899
G3 X84.663 Y74.207 I1.519 J-2.928 E.02895
G1 X84.409 Y73.91 E.01483
G1 X84.23 Y73.538 E.01571
G1 X84.215 Y73.275 E.01001
G1 X84.285 Y73.026 E.00982
G1 X84.494 Y72.566 E.0192
G1 X84.91 Y71.907 E.02962
G1 X115.089 Y71.907 E1.14701
G1 X115.489 Y72.545 E.0286
G1 X115.731 Y73.031 E.02062
G1 X115.772 Y73.538 E.01936
G1 X115.669 Y73.807 E.01093
G1 X115.336 Y74.201 E.01961
G3 X114.517 Y74.792 I-6.06 J-7.55 E.03841
G1 X114.407 Y74.97 E.00796
G3 X112.045 Y77.772 I-5.106 J-1.908 E.14207
G3 X110.476 Y78.415 I-3.387 J-6.033 E.0646
G1 X109.765 Y78.551 E.02751
G3 X107.438 Y78.637 I-1.997 J-22.459 E.08853
M73 P51 R4
G1 X107.193 Y78.682 E.00948
G1 X106.992 Y78.802 E.00889
G2 X105.994 Y79.73 I6.779 J8.286 E.05183
G1 X105.56 Y80.311 E.02755
G1 X105.289 Y80.828 E.02217
G1 X104.993 Y81.54 E.02933
G1 X104.968 Y81.792 E.00961
G1 X105.068 Y82.093 E.01205
G1 X105.312 Y82.338 E.01317
G1 X105.888 Y82.835 E.0289
G1 X106.228 Y83.227 E.01973
G1 X106.597 Y83.834 E.027
G1 X106.675 Y84.091 E.0102
G1 X106.795 Y84.683 E.02297
G3 X106.785 Y85.858 I-23.216 J.398 E.04464
G1 X106.9 Y86.108 E.01045
G1 X107.124 Y86.304 E.01131
G3 X112.962 Y91.761 I-6.978 J13.317 E.30743
G3 X114.377 Y95.266 I-11.143 J6.535 E.14416
G3 X114.669 Y97.532 I-15.061 J3.096 E.08692
G1 X114.717 Y98.639 E.04212
G1 X114.788 Y101.388 E.1045
G1 X114.854 Y101.664 E.01079
G1 X115.041 Y101.902 E.01151
G1 X115.377 Y102.176 E.01647
G1 X115.597 Y102.466 E.01386
G1 X115.72 Y102.783 E.0129
G1 X115.748 Y103.113 E.01261
G1 X115.684 Y103.443 E.01274
G1 X115.425 Y103.908 E.02024
G1 X114.945 Y104.481 E.02842
G1 X112.943 Y104.481 E.07608
G1 X112.636 Y104.637 E.01308
G1 X112.462 Y104.853 E.01055
G1 X112.395 Y105.056 E.00813
G1 X112.388 Y105.226 E.00648
G1 X112.497 Y105.561 E.01336
G3 X113.512 Y108.759 I-11.036 J5.262 E.12792
G3 X113.269 Y113.633 I-12.855 J1.803 E.1866
G3 X110.709 Y118.41 I-11.38 J-3.024 E.20784
G3 X102.667 Y122.984 I-10.437 J-8.995 E.35861
G2 X101.549 Y123.372 I1.948 J7.412 E.04504
G1 X101.372 Y123.543 E.00935
G1 X101.28 Y123.722 E.00764
G1 X101.288 Y123.948 E.00857
G1 X101.689 Y124.044 F24000
;TYPE:Outer wall
;WIDTH:0.596688
G1 F1500
G1 X101.724 Y124.132 E.00439
G1 X102.067 Y124.572 E.02569
;WIDTH:0.577873
G1 X102.306 Y125.017 E.02243
G1 X102.417 Y125.347 E.01552
;WIDTH:0.568609
G1 X102.506 Y125.922 E.02543
;WIDTH:0.57785
G1 X102.464 Y126.463 E.02415
G1 X102.372 Y126.799 E.01549
;WIDTH:0.568701
G1 X102.127 Y127.328 E.02546
;WIDTH:0.57775
G1 X101.791 Y127.754 E.02413
G1 X101.527 Y127.984 E.01557
;WIDTH:0.568634
G1 X101.031 Y128.286 E.02537
;WIDTH:0.577569
G1 X100.514 Y128.454 E.02417
G1 X100.169 Y128.498 E.01549
;WIDTH:0.568641
G1 X99.586 Y128.473 E.02551
;WIDTH:0.577977
G1 X99.065 Y128.326 E.02406
G1 X98.753 Y128.171 E.01553
;WIDTH:0.568471
G1 X98.282 Y127.827 E.02545
;WIDTH:0.578057
G1 X97.93 Y127.415 E.02415
G1 X97.756 Y127.112 E.01553
;WIDTH:0.568947
G1 X97.557 Y126.565 E.02545
;WIDTH:0.577843
G1 X97.493 Y126.026 E.02416
;WIDTH:0.57802
G1 X97.536 Y125.537 E.02183
G1 X97.678 Y125.038 E.02308
;WIDTH:0.578176
G3 X98.095 Y124.334 I4.35 J2.103 E.0365
;WIDTH:0.546885
G1 X98.262 Y124.083 E.01261
;WIDTH:0.515594
G1 X98.301 Y123.946 E.00561
;WIDTH:0.499999
G1 X98.234 Y123.78 E.00681
G1 X97.988 Y123.676 E.01014
G1 X97.212 Y123.421 E.03104
G3 X94.568 Y122.677 I2.16 J-12.738 E.10459
G3 X92.349 Y121.606 I6.698 J-16.71 E.09373
G1 X91.545 Y121.085 E.0364
G3 X88.235 Y117.83 I8.642 J-12.101 E.17717
G3 X85.908 Y110.328 I9.929 J-7.191 E.30387
G3 X86.762 Y106.098 I11.791 J.179 E.16494
G1 X87.133 Y105.259 E.03488
G1 X87.15 Y105.134 E.00481
G1 X87.07 Y104.99 E.00625
G1 X86.924 Y104.938 E.00588
G1 X84.839 Y104.938 E.07925
G1 X84.157 Y104.112 E.0407
G1 X83.865 Y103.603 E.0223
G1 X83.754 Y103.201 E.01584
G1 X83.762 Y102.843 E.01361
G1 X83.87 Y102.489 E.0141
G1 X84.03 Y102.232 E.01147
G1 X84.331 Y101.872 E.01785
G1 X84.735 Y101.514 E.0205
G1 X84.756 Y101.424 E.00352
G3 X84.887 Y97.377 I117.876 J1.779 E.15389
G1 X84.979 Y96.352 E.03911
G3 X85.705 Y93.491 I11.146 J1.305 E.11254
G3 X89.566 Y88.019 I13.498 J5.428 E.25682
G3 X92.658 Y85.91 I9.673 J10.858 E.14266
G1 X92.763 Y85.798 E.00583
G2 X92.743 Y84.838 I-22.463 J-.011 E.03649
G1 X92.825 Y84.167 E.02568
G1 X92.98 Y83.656 E.02029
G1 X93.132 Y83.376 E.0121
G1 X93.467 Y82.875 E.02293
G1 X93.866 Y82.437 E.0225
G1 X94.387 Y81.995 E.02596
M73 P52 R4
G1 X94.577 Y81.801 E.01035
G1 X94.571 Y81.631 E.00647
G1 X94.289 Y81 E.02624
G1 X94.017 Y80.535 E.02048
G1 X93.564 Y79.939 E.02845
G2 X92.719 Y79.149 I-5.09 J4.598 E.04403
G1 X92.571 Y79.094 E.00599
G3 X90.536 Y79.03 I-.373 J-20.57 E.07744
G3 X87.546 Y78.031 I.623 J-6.838 E.12088
G1 X87.026 Y77.664 E.02422
G1 X86.438 Y77.139 E.02993
G3 X85.119 Y75.077 I4.81 J-4.529 E.09359
G1 X84.718 Y74.823 E.01805
G1 X84.231 Y74.436 E.02364
G1 X83.928 Y74.03 E.01924
G1 X83.778 Y73.634 E.01608
G1 X83.755 Y73.225 E.01558
G1 X83.844 Y72.903 E.01269
G1 X84.096 Y72.34 E.02344
G1 X84.658 Y71.45 E.04002
G1 X115.342 Y71.45 E1.1662
G1 X115.876 Y72.302 E.03822
G1 X116.107 Y72.756 E.01935
G1 X116.247 Y73.222 E.01848
G1 X116.224 Y73.634 E.01571
G1 X116.074 Y74.029 E.01605
G1 X115.775 Y74.43 E.01901
G1 X115.433 Y74.716 E.01694
G1 X114.928 Y75.036 E.02272
G1 X114.829 Y75.147 E.00566
G3 X112.276 Y78.167 I-5.507 J-2.065 E.1533
G3 X110.586 Y78.859 I-3.644 J-6.49 E.06958
G1 X109.826 Y79.004 E.0294
G3 X107.438 Y79.094 I-2.058 J-22.963 E.09087
G1 X107.289 Y79.149 E.00603
G2 X106.356 Y80.009 I6.811 J8.325 E.04825
G1 X105.964 Y80.525 E.02465
G2 X105.424 Y81.755 I4.795 J2.84 E.05117
G1 X105.51 Y81.912 E.00683
G1 X105.98 Y82.282 E.02274
G1 X106.395 Y82.695 E.02223
G1 X106.747 Y83.151 E.0219
G1 X107.021 Y83.657 E.02188
G3 X107.22 Y84.442 I-4.91 J1.66 E.03082
G1 X107.269 Y85.114 E.02559
G1 X107.236 Y85.774 E.02514
G1 X107.343 Y85.903 E.00635
G3 X113.355 Y91.526 I-7.195 J13.716 E.31666
G3 X114.667 Y94.575 I-11.175 J6.617 E.1265
G3 X114.951 Y95.851 I-8.393 J2.533 E.04973
G1 X115.054 Y96.579 E.02796
G3 X115.217 Y100.297 I-53.949 J4.226 E.14147
G1 X115.267 Y101.468 E.04453
G1 X115.708 Y101.856 E.02233
G1 X116 Y102.242 E.01839
G1 X116.169 Y102.678 E.0178
G1 X116.209 Y103.138 E.01753
G1 X116.122 Y103.589 E.01747
G3 X115.784 Y104.19 I-3.741 J-1.703 E.02623
G1 X115.158 Y104.938 E.03708
G1 X113.071 Y104.938 E.07931
G1 X112.948 Y104.974 E.00486
G1 X112.846 Y105.13 E.00709
G1 X112.862 Y105.26 E.00498
G3 X113.964 Y108.69 I-11.346 J5.535 E.13741
G3 X113.724 Y113.706 I-13.255 J1.878 E.19198
G3 X111.083 Y118.678 I-11.815 J-3.087 E.21593
G3 X102.613 Y123.462 I-10.843 J-9.307 E.37726
G1 X101.854 Y123.727 E.03054
G1 X101.743 Y123.81 E.00524
;WIDTH:0.532092
G1 X101.716 Y123.927 E.00489
;WIDTH:0.564184
G1 X101.698 Y124.005 E.00347
G1 E-1.6 F2100
;WIPE_START
G1 F1500
G1 X101.724 Y124.132 E-.05201
G1 X102.067 Y124.572 E-.22318
G1 X102.215 Y124.847 E-.12481
;WIPE_END
G1 X98.513 Y118.172 Z.6 F24000
G1 X90.93 Y104.496 Z.6
M73 P53 R4
G1 Z.2
G1 E2 F1800
;TYPE:Inner wall
;WIDTH:0.499999
G1 F1500
G1 X91.03 Y104.481 E.00386
G1 X97.722 Y104.481 E.25436
G1 X98.02 Y104.549 E.01161
G1 X98.198 Y104.673 E.00825
G1 X98.37 Y104.943 E.01215
G1 X98.408 Y105.167 E.00863
G1 X98.408 Y110.361 E.19742
G1 X98.344 Y110.645 E.01106
G1 X98.155 Y110.886 E.01164
G1 X97.91 Y111.014 E.01052
G2 X96.696 Y111.092 I1.072 J26.049 E.04621
G1 X96.239 Y111.188 E.01778
G1 X95.815 Y111.426 E.01846
G1 X95.5 Y111.761 E.01748
G1 X95.346 Y112.147 E.01579
G1 X95.305 Y112.527 E.01451
G1 X95.39 Y112.912 E.01499
G1 X95.586 Y113.283 E.01595
G1 X95.962 Y113.617 E.01912
G1 X96.414 Y113.796 E.01846
G1 X96.979 Y113.858 E.0216
G1 X97.733 Y113.872 E.02867
G1 X98.05 Y113.957 E.01247
G1 X98.225 Y114.095 E.00846
G1 X98.336 Y114.257 E.00747
G1 X98.404 Y114.524 E.01046
G1 X98.439 Y115.235 E.02706
G1 X98.534 Y115.618 E.01501
G1 X98.716 Y115.929 E.0137
G1 X99.123 Y116.299 E.02091
G1 X99.546 Y116.521 E.01815
G1 X99.883 Y116.594 E.01311
G1 X100.241 Y116.589 E.01358
G1 X100.579 Y116.502 E.01329
G1 X100.991 Y116.253 E.01827
G1 X101.314 Y115.907 E.01801
G1 X101.456 Y115.637 E.0116
G1 X101.566 Y115.079 E.02158
G1 X101.599 Y114.517 E.02142
G1 X101.667 Y114.257 E.0102
G1 X101.845 Y114.03 E.01095
G1 X102.08 Y113.903 E.01016
G2 X103.28 Y113.814 I-5.661 J-84.91 E.04572
G1 X103.794 Y113.694 E.02007
G1 X104.136 Y113.527 E.01445
G1 X104.391 Y113.309 E.01277
G1 X104.559 Y113.065 E.01123
G1 X104.659 Y112.752 E.01251
G1 X104.675 Y112.186 E.02151
G1 X104.551 Y111.829 E.01438
G1 X104.362 Y111.575 E.01201
G1 X104.096 Y111.368 E.01281
G1 X103.658 Y111.198 E.01786
G1 X103.109 Y111.108 E.02112
G1 X102.289 Y111.063 E.03123
G1 X102.077 Y111.031 E.00813
G1 X101.842 Y110.904 E.01016
G1 X101.656 Y110.661 E.01166
G1 X101.594 Y110.354 E.01187
G1 X101.594 Y105.167 E.19717
G1 X101.632 Y104.943 E.00863
G1 X101.804 Y104.673 E.01215
G1 X102.07 Y104.514 E.01179
G1 X102.476 Y104.481 E.0155
G1 X108.955 Y104.481 E.24622
G1 X109.271 Y104.558 E.01239
G1 X109.473 Y104.718 E.00976
G1 X109.564 Y104.853 E.0062
G1 X109.631 Y105.056 E.00813
G1 X109.628 Y105.293 E.00901
G1 X109.516 Y105.894 E.02325
G1 X109.586 Y106.434 E.0207
G2 X110.078 Y107.856 I74.233 J-24.914 E.05718
G1 X110.265 Y108.57 E.02804
G3 X110.385 Y110.432 I-13.86 J1.824 E.07097
G3 X110.296 Y112.528 I-16.298 J.362 E.07978
G1 X110.102 Y113.258 E.02871
G3 X108.065 Y116.863 I-9.7 J-3.101 E.15848
G1 X107.435 Y117.515 E.03446
G3 X102.454 Y120.152 I-7.594 J-8.323 E.21649
G3 X100.432 Y120.369 I-2.253 J-11.454 E.07739
G3 X98.271 Y120.277 I-.484 J-14.082 E.08229
G1 X97.309 Y120.104 E.03716
G3 X93.502 Y118.303 I3.049 J-11.371 E.16094
G3 X91.773 Y116.684 I7.001 J-9.209 E.09018
G3 X91.118 Y115.799 I6.157 J-5.242 E.04188
G1 X90.619 Y114.973 E.0367
G1 X90.234 Y114.168 E.0339
G3 X89.784 Y112.884 I9.503 J-4.049 E.05174
G1 X89.694 Y112.343 E.02086
G1 X89.6 Y111.412 E.03555
G3 X89.574 Y109.921 I22.932 J-1.136 E.0567
G1 X89.615 Y109.278 E.02448
G1 X89.761 Y108.544 E.02843
G3 X90.294 Y106.807 I24.03 J6.419 E.0691
G1 X90.439 Y106.194 E.02394
G1 X90.45 Y105.74 E.01723
G1 X90.347 Y105.226 E.01992
G1 X90.352 Y105.068 E.00602
G1 X90.417 Y104.86 E.00829
G1 X90.593 Y104.638 E.01077
G1 X90.826 Y104.512 E.01007
G1 X90.89 Y104.502 E.00246
G1 X90.997 Y104.94 F24000
;TYPE:Outer wall
G1 F1500
G1 X91.852 Y104.938 E.03248
G1 X97.722 Y104.938 E.22312
G1 X97.881 Y105.002 E.0065
G1 X97.951 Y105.167 E.00679
G1 X97.951 Y110.357 E.19725
G1 X97.89 Y110.51 E.00627
G1 X97.725 Y110.583 E.00687
G2 X96.509 Y110.649 I-.087 J9.617 E.04629
G1 X96.083 Y110.756 E.01671
G1 X95.693 Y110.942 E.01644
G1 X95.373 Y111.19 E.01537
G1 X95.111 Y111.515 E.01587
G1 X94.946 Y111.858 E.01447
G1 X94.854 Y112.376 E.01998
G1 X94.899 Y112.896 E.01983
G1 X95.021 Y113.238 E.01381
G1 X95.225 Y113.569 E.01475
G1 X95.57 Y113.913 E.01852
G1 X95.872 Y114.097 E.01346
G1 X96.316 Y114.245 E.01776
G1 X96.949 Y114.314 E.02423
G1 X97.724 Y114.329 E.02944
G1 X97.888 Y114.403 E.00684
